packages/web-icons/svgs/clock_1.svg

<svg viewBox="0 0 46 48" xmlns="http://www.w3.org/2000/svg" class="ridi_icon"><path d="M32.4 3.4c1-2 3-3.4 5.4-3.4 3.3 0 6.1 2.7 6.1 6.1 0 1.8-.9 3.4-2.2 4.5-2.5-3.1-5.6-5.6-9.3-7.2zm12.8 22.1c0 5.8-2.3 11.1-6 15l3.6 6-3 1.5-4.5-4.1c-3.5 2.4-7.8 3.8-12.4 3.8-4.6 0-8.9-1.4-12.4-3.8L6.1 48l-3-1.5 3.6-6c-3.7-4-6-9.2-6-15C.8 13.2 10.7 3.2 23 3.2s22.2 10 22.2 22.3zM23 6.7c-10.3 0-18.7 8.4-18.7 18.8s8.4 18.8 18.8 18.8 18.7-8.4 18.7-18.8S33.4 6.7 23 6.7zm-1.5 20.5V12h3v12.2h9.1v3H21.5zM4.3 10.7C2.9 9.6 1.9 8 1.9 6.1 1.9 2.7 4.7 0 8 0c2.4 0 4.5 1.4 5.4 3.5-3.6 1.6-6.7 4.1-9.1 7.2z"/></svg>

<?xml version="1.0" encoding="UTF-8"?>
<svg width="46px" height="48px" viewBox="0 0 46 48" version="1.1" xmlns="http://www.w3.org/2000/svg">
  <!-- Generator: Sketch 41.2 (35397) - http://www.bohemiancoding.com/sketch -->
  <title>clock_1</title>
  <desc>Created with Sketch.</desc>
  <defs></defs>
  <g id="Page-1" stroke="none" stroke-width="1" fill="none" fill-rule="evenodd">
    <g id="clock_1" fill="#000000">
      <g id="레이어_1">
        <path d="M32.4,3.4 C33.4,1.4 35.4,0 37.8,0 C41.1,0 43.9,2.7 43.9,6.1 C43.9,7.9 43,9.5 41.7,10.6 C39.2,7.5 36.1,5 32.4,3.4 L32.4,3.4 Z M45.2,25.5 C45.2,31.3 42.9,36.6 39.2,40.5 L42.8,46.5 L39.8,48 L35.3,43.9 C31.8,46.3 27.5,47.7 22.9,47.7 C18.3,47.7 14,46.3 10.5,43.9 L6.1,48 L3.1,46.5 L6.7,40.5 C3,36.5 0.7,31.3 0.7,25.5 C0.8,13.2 10.7,3.2 23,3.2 C35.3,3.2 45.2,13.2 45.2,25.5 L45.2,25.5 Z M23,6.7 C12.7,6.7 4.3,15.1 4.3,25.5 C4.3,35.9 12.7,44.3 23.1,44.3 C33.5,44.3 41.8,35.9 41.8,25.5 C41.8,15.1 33.4,6.7 23,6.7 Z M21.5,27.2 L21.5,12 L24.5,12 L24.5,24.2 L33.6,24.2 L33.6,27.2 L21.5,27.2 Z M4.3,10.7 C2.9,9.6 1.9,8 1.9,6.1 C1.9,2.7 4.7,0 8,0 C10.4,0 12.5,1.4 13.4,3.5 C9.8,5.1 6.7,7.6 4.3,10.7 L4.3,10.7 Z" id="Shape"></path>
      </g>
    </g>
  </g>
</svg>
